src/amo/components/CategoryIcon/img/games-entertainment.svg

<svg xmlns="http://www.w3.org/2000/svg" width="64" height="64" viewBox="0 0 64 64">
  <g class="two" fill="#0F1126">
    <path d="M45.7846154,55.2 C53.1261914,55.2 59.0769231,49.2492683 59.0769231,41.9076923 C59.0769231,34.5661163 53.1261914,28.6153846 45.7846154,28.6153846 L18.2153846,28.6153846 C10.8738086,28.6153846 4.92307692,34.5661163 4.92307692,41.9076923 C4.92307692,49.2492683 10.8738086,55.2 18.2153846,55.2 L45.7846154,55.2 Z M45.7846154,60.1230769 L18.2153846,60.1230769 C8.15486831,60.1230769 0,51.9682086 0,41.9076923 C0,31.847176 8.15486831,23.6923077 18.2153846,23.6923077 L45.7846154,23.6923077 C55.8451317,23.6923077 64,31.847176 64,41.9076923 C64,51.9682086 55.8451317,60.1230769 45.7846154,60.1230769 Z M34.4615385,18.2769231 C34.4615385,19.6363932 33.3594702,20.7384615 32,20.7384615 C30.6405298,20.7384615 29.5384615,19.6363932 29.5384615,18.2769231 L29.5384615,6.46153846 C29.5384615,5.10206831 30.6405298,4 32,4 C33.3594702,4 34.4615385,5.10206831 34.4615385,6.46153846 L34.4615385,18.2769231 Z"/>
  </g>
  <g class="one" fill="#0F1126">
    <path d="M20.9230769,39.6923077 L20.9230769,36 C20.9230769,35.3202649 20.3720428,34.7692308 19.6923077,34.7692308 C19.0125726,34.7692308 18.4615385,35.3202649 18.4615385,36 L18.4615385,39.6923077 L14.7692308,39.6923077 C14.0894957,39.6923077 13.5384615,40.2433418 13.5384615,40.9230769 C13.5384615,41.602812 14.0894957,42.1538462 14.7692308,42.1538462 L18.4615385,42.1538462 L18.4615385,45.8461538 C18.4615385,46.5258889 19.0125726,47.0769231 19.6923077,47.0769231 C20.3720428,47.0769231 20.9230769,46.5258889 20.9230769,45.8461538 L20.9230769,42.1538462 L24.6153846,42.1538462 C25.2951197,42.1538462 25.8461538,41.602812 25.8461538,40.9230769 C25.8461538,40.2433418 25.2951197,39.6923077 24.6153846,39.6923077 L20.9230769,39.6923077 Z M42.2241314,40.8087468 C41.7434861,41.2893921 40.9642062,41.2893921 40.4835609,40.8087468 C40.0029156,40.3281015 40.0029156,39.5488216 40.4835609,39.0681763 L44.4220224,35.1297147 C44.9026677,34.6490694 45.6819477,34.6490694 46.162593,35.1297147 C46.6432382,35.61036 46.6432382,36.38964 46.162593,36.8702853 L42.2241314,40.8087468 Z M44.1933622,48.6856699 C43.7127169,49.1663152 42.9334369,49.1663152 42.4527917,48.6856699 C41.9721464,48.2050246 41.9721464,47.4257446 42.4527917,46.9450993 L46.3912532,43.0066378 C46.8718985,42.5259925 47.6511784,42.5259925 48.1318237,43.0066378 C48.612469,43.4872831 48.612469,44.2665631 48.1318237,44.7472083 L44.1933622,48.6856699 Z"/>
  </g>
</svg>

<svg xmlns="http://www.w3.org/2000/svg" width="64" height="64"><path d="M45.785 55.2c7.341 0 13.292-5.95 13.292-13.292s-5.95-13.293-13.292-13.293h-27.57c-7.341 0-13.292 5.951-13.292 13.293 0 7.341 5.95 13.292 13.292 13.292h27.57Zm0 4.923h-27.57C8.155 60.123 0 51.968 0 41.908s8.155-18.216 18.215-18.216h27.57C55.845 23.692 64 31.847 64 41.908c0 10.06-8.155 18.215-18.215 18.215ZM34.462 18.277a2.462 2.462 0 0 1-4.924 0V6.462a2.462 2.462 0 0 1 4.924 0v11.815Z" class="two" fill="#0F1126"/><path d="M20.923 39.692V36a1.23 1.23 0 1 0-2.461 0v3.692h-3.693a1.23 1.23 0 1 0 0 2.462h3.693v3.692a1.23 1.23 0 1 0 2.461 0v-3.692h3.692a1.23 1.23 0 0 0 0-2.462h-3.692Zm21.301 1.117a1.23 1.23 0 1 1-1.74-1.74l3.938-3.94a1.23 1.23 0 1 1 1.74 1.741l-3.938 3.939Zm1.97 7.877a1.23 1.23 0 1 1-1.741-1.74l3.938-3.94a1.23 1.23 0 1 1 1.74 1.741l-3.938 3.939Z" class="one" fill="#0F1126"/></svg>
